X:1
T:Blessèd Be the Name
T:Blessèd Be the Name
T:Leander Lycurgus Pickett
T:Leander Lycurgus Pickett, 1894
T:Public Domain Courtesy of the Cyber Hymnal™
T:Public Domain Courtesy of the Cyber Hymnal™
C:Leander Lycurgus Pickett
Z:Public Domain
Z:Courtesy of the Cyber Hymnal™
%%score 1 ( 2 3 )
L:1/8
Q:1/4=110
M:4/4
K:Ab
V:1 treble 
V:2 bass 
V:3 bass 
V:1
 [CE]2 | [Ec]2 [Ec]2 [CA]3 [EG] | [DF]2 [CE]2 [CA]4 | [EG]>[EF] [EG]>[EA] [EB]4 | %4
w: 1.~In|Beth- le- hem a|child was born,|Bless- èd be His name,|
w: 2.~The|an- gel told be-|fore His birth,|Bless- èd be His name,|
w: 3.~He|called Him- self the|Son of Man,|Bless- èd be His name,|
w: 4.~He|shall be great, the|an- gels said,|Bless- èd be His name,|
w: 5.~“The|Prince of peace,” “the|Son of God,”|Bless- èd be His name,|
w: 6.~“Mes-|si- ah” and “Im-|man- u- el,”|Bless- èd be His name,|
w: 7.~Je-|sus the ho- ly|coun- se- lor,|Bless- èd be His name,|
w: 8.~“The|Ev- er- last- ing|Fa- ther,” He,|Bless- èd be His name,|
 [EA]>[EG] [EA]>[EB] [Ec]2 | [CE]2 | [Ec]2 [Ec]2 [CA]3 [EG] | [DF]2 [CE]2 [CA]4 || %8
w: bless- èd be His name,|For|us His life from|earth was torn,|
w: bless- èd be His name,|That|He was Christ, the|Lord of earth,|
w: Bless- èd be His name,|Of|con- quering hosts He|leads the van,|
w: bless- èd be His name,|The|crowns of earth are|for His head,|
w: bless- èd be His name,|Yet|for our souls He|bore the rod,|
w: bless- èd be His name,|His|glo- ry who can|ful- ly tell,|
w: bless- èd be His name,|Our|lead- er in the|ho- ly war,|
w: bless- èd be His name,|The|might- y God shall|ev- er be,|
"^Refrain" [EG]>[EF] [EG]>[EA] [EB]4 [EB]2 [Ec]>[EB] | [EA]6 z2 | [EG]>[EF] [EG]>[EA] [EB]4 | %11
w: |||
w: |||
w: |||
w: |||
w: Bless- èd be His name, name of the|Lord.|Bless- èd be the name,|
w: |||
w: |||
w: |||
 [EA]>[EG] [EA]>[EB] [Ec]4 |1 [Ac]>[GB] [Ac]>[Bd] [ce]2 [Gd]>[Gc] | ([GB]3 [Ac] [GB]4) :|2 %14
w: |||
w: |||
w: |||
w: |||
w: bless- èd be the name,|Bless- èd be the name of the|Lord, * *|
w: |||
w: |||
w: |||
 [Ac]>[EB] || [EA]6 |] %16
w: ||
w: ||
w: ||
w: ||
w: of the|Lord,|
w: ||
w: ||
w: ||
V:2
 [A,,A,]2 | [A,,A,]2 [A,,A,]2 [A,,A,]3 [A,,A,] | [A,,A,]2 [A,,A,]2 [A,,A,]4 | %3
 [E,B,]>[E,=A,] [E,B,]>[E,C] [E,D]4 | [A,,C]>[A,,B,] [A,,C]>[A,,D] [A,,E]2 | [A,,A,]2 | %6
 [A,,A,]2 [A,,A,]2 [A,,A,]3 [A,,A,] | [A,,A,]2 [A,,A,]2 [A,,A,]4 || %8
 [E,B,]>[E,=A,] [E,B,]>[E,C] [E,D]4 [E,D]2 [E,E]>[E,D] | A,,6 z2 | %10
 [E,B,]>[E,=A,] [E,B,]>[E,C] [E,D]4 | [A,C]>[A,B,] [A,C]>[A,D] [A,E]4 |1 %12
 [A,E]>[A,E] [A,E]>[A,E] [A,E]2 [B,E]>[A,E] | [E,E]8 :|2 [E,E]>[E,E] || [A,,C]6 |] %16
V:3
 x2 | x8 | x8 | x8 | x6 | x2 | x8 | x8 || x12 | A,,6 x2 | x8 | x8 |1 x8 | x8 :|2 x2 || x6 |] %16

